usr/share/icons/biglinux-icons-material/symbolic/emotes/face-hat-symbolic.svg

<svg width="16" height="16" version="1.1" xmlns="http://www.w3.org/2000/svg">
 <path d="m4.6738 0.57617-0.27734 0.74023-0.6875 1.8359-3.5605 2.8477h2.2109a6 6 0 0 0-0.35938 2 6 6 0 0 0 6 6 6 6 0 0 0 6-6 6 6 0 0 0-0.34375-2h2.1953l-3.5605-2.8477-0.96484-2.5762-3.3262 0.41602-3.3262-0.41602zm0.66016 1.0898 2.666 0.33398 2.666-0.33398 0.5 1.334h-6.332l0.5-1.334zm-1.0859 2.334h7.5039l1.248 1h-3-7l1.248-1zm-0.81445 2h1.5664a1 1 0 0 0 1 1 1 1 0 0 0 1-1h2a1 1 0 0 0 1 1 1 1 0 0 0 1-1h1.5801a5 5 0 0 1 0.41992 2 5 5 0 0 1-5 5 5 5 0 0 1-5-5 5 5 0 0 1 0.43359-2zm2.0664 4c-0.277 0-0.5 0.223-0.5 0.5s0.223 0.5 0.5 0.5h5c0.277 0 0.5-0.223 0.5-0.5s-0.223-0.5-0.5-0.5h-5z" fill="#dedede" stroke-linecap="round" stroke-linejoin="round" stroke-width="2" style="paint-order:stroke fill markers"/>
</svg>

<svg xmlns="http://www.w3.org/2000/svg" width="16" height="16"><path fill="#dedede" d="m4.674.576-.278.74-.687 1.836L.149 6h2.21A6 6 0 0 0 2 8a6 6 0 0 0 6 6 6 6 0 0 0 6-6 6 6 0 0 0-.344-2h2.196L12.29 3.152 11.326.576 8 .992 4.674.576zm.66 1.09L8 2l2.666-.334.5 1.334H4.834l.5-1.334zM4.248 4h7.504L13 5H3l1.248-1zm-.814 2H5a1 1 0 0 0 1 1 1 1 0 0 0 1-1h2a1 1 0 0 0 1 1 1 1 0 0 0 1-1h1.58A5 5 0 0 1 13 8a5 5 0 0 1-5 5 5 5 0 0 1-5-5 5 5 0 0 1 .434-2zM5.5 10a.499.499 0 1 0 0 1h5a.499.499 0 1 0 0-1h-5z" style="paint-order:stroke fill markers"/></svg>
